X: 14092
T: SONO'S HORNPIPE
C: Bob McQuillen 6 July'10
B: Bob's Note Book 14 #92
%R: hornpipe, reel
%D:2010
Z: 2020 John Chambers <jc:trillian.mit.edu>
M: C
L: 1/8
K: D
de \
| fdef dBAG | F2D2 D2AG | FDFA dfaf | g2e2 e2ag |
| fdef dBAG | FABA FDFA | BGBd cAce | d2f2 d2  :|
|: fg \
| a2ag fafd | efge B2ef | gagf edBd | cdec A2AG |
| FABA FDFA | BGBd gfed | Adfa gecd | e2d2 d2  :|
%%begintext align
%% At this year's Seattle
%% Folklife Festival, Steve Trampe once again gathered together
%% the greatest gang of female fiddlers you ever heard. Known
%% as the "Fab Girls", they played for a contra dance in the
%% Road House, and I was lucky enough to play piano for
%% them. Sono Hashisake was one of the fiddlers, and she
%% worked so hard, I thought she deserved a tune of her own.
%% So here it is, Sono, and I hope you like it!
%%endtext

%%sep 1 1 500

%%sep 1 1 500

